; generated by Slic3r 1.0.0RC2 on 2014-01-10 at 13:12:13

; layer_height = 0.1
; perimeters = 3
; top_solid_layers = 3
; bottom_solid_layers = 3
; fill_density = 0.4
; perimeter_speed = 30
; infill_speed = 60
; travel_speed = 130
; nozzle_diameter = 0.5
; filament_diameter = 1.75
; extrusion_multiplier = 1
; perimeters extrusion width = 0.50mm
; infill extrusion width = 1.98mm
; solid infill extrusion width = 0.85mm
; top infill extrusion width = 0.85mm
; first layer extrusion width = 0.70mm

G21 ; set units to millimeters
M107
M104 S200 ; set temperature
G28 ; home all axes
G1 Z5 F5000 ; lift nozzle
M109 S200 ; wait for temperature to be reached
G90 ; use absolute coordinates
G92 E0
M82 ; use absolute distances for extrusion
G1 F1800.000 E-1.00000
G92 E0
G1 Z0.350 F7800.000
G1 X39.984 Y12.835 F7800.000
G1 E1.00000 F1800.000
G1 X39.294 Y15.795 E1.29060 F540.000
G1 X38.894 Y17.255 E1.43534
G1 X38.774 Y17.645 E1.47436
G1 X37.834 Y20.355 E1.74862
G1 X37.254 Y21.815 E1.89883
G1 X35.894 Y24.735 E2.20681
G1 X35.144 Y26.135 E2.35867
G1 X33.474 Y28.895 E2.66711
G1 X32.614 Y30.175 E2.81456
G1 X30.644 Y32.765 E3.12569
G1 X29.674 Y33.935 E3.27100
G1 X27.144 Y36.605 E3.62270
G1 X26.244 Y37.445 E3.74041
G1 X23.564 Y39.725 E4.07684
G1 X22.314 Y40.675 E4.22695
G1 X19.944 Y42.295 E4.50144
G1 X18.274 Y43.305 E4.68805
G1 X15.434 Y44.815 E4.99558
G1 X14.324 Y45.335 E5.11278
G1 X11.364 Y46.545 E5.41853
G1 X9.524 Y47.185 E5.60480
G1 X6.764 Y47.975 E5.87929
G1 X4.884 Y48.415 E6.06390
G1 X2.064 Y48.905 E6.33757
G1 X0.514 Y49.105 E6.48700
G1 X-3.106 Y49.345 E6.83389
G1 X-4.336 Y49.355 E6.95149
G1 X-7.846 Y49.215 E7.28737
G1 X-9.436 Y49.065 E7.44007
G1 X-12.666 Y48.575 E7.75243
G1 X-14.156 Y48.255 E7.89815
G1 X-17.286 Y47.445 E8.20727
G1 X-18.796 Y46.955 E8.35906
G1 X-21.776 Y45.825 E8.66379
G1 X-22.906 Y45.335 E8.78155
G1 X-23.256 Y45.165 E8.81876
G1 X-26.136 Y43.705 E9.12749
G1 X-27.476 Y42.925 E9.27573
G1 X-29.886 Y41.375 E9.54971
G1 X-31.456 Y40.235 E9.73522
G1 X-33.686 Y38.435 E10.00923
G1 X-35.136 Y37.145 E10.19479
G1 X-37.156 Y35.125 E10.46794
G1 X-38.236 Y33.925 E10.62230
G1 X-40.236 Y31.465 E10.92543
G1 X-41.386 Y29.875 E11.11306
G1 X-42.936 Y27.465 E11.38703
G1 X-43.716 Y26.125 E11.53528
G1 X-45.176 Y23.245 E11.84401
G1 X-45.826 Y21.795 E11.99594
G1 X-47.086 Y18.445 E12.33815
G1 X-47.456 Y17.275 E12.45548
G1 X-48.266 Y14.145 E12.76461
G1 X-48.586 Y12.655 E12.91032
G1 X-49.076 Y9.425 E13.22269
G1 X-49.226 Y7.835 E13.37539
G1 X-49.366 Y4.325 E13.71126
G1 X-49.356 Y3.095 E13.82887
G1 X-49.116 Y-0.535 E14.17670
G1 X-48.916 Y-2.065 E14.32424
G1 X-48.426 Y-4.895 E14.59885
G1 X-47.986 Y-6.775 E14.78346
G1 X-47.086 Y-9.875 E15.09210
G1 X-46.556 Y-11.375 E15.24421
G1 X-45.346 Y-14.335 E15.54996
G1 X-44.666 Y-15.765 E15.70136
G1 X-43.316 Y-18.285 E15.97471
G1 X-42.306 Y-19.955 E16.16131
G1 X-40.686 Y-22.325 E16.43580
G1 X-40.476 Y-22.605 E16.46926
G1 X-39.506 Y-23.855 E16.62054
G1 X-37.426 Y-26.285 E16.92638
G1 X-36.326 Y-27.435 E17.07853
G1 X-33.976 Y-29.645 E17.38698
G1 X-32.776 Y-30.655 E17.53694
G1 X-30.186 Y-32.625 E17.84808
G1 X-28.906 Y-33.485 E17.99552
G1 X-26.466 Y-34.975 E18.26888
G1 X-26.126 Y-35.175 E18.30659
G1 X-25.036 Y-35.755 E18.42465
G1 X-21.826 Y-37.265 E18.76383
G1 X-20.346 Y-37.855 E18.91617
G1 X-17.636 Y-38.785 E19.19011
G1 X-16.136 Y-39.225 E19.33958
G1 X-12.846 Y-39.995 E19.66265
G1 X30.864 Y-48.955 E23.92882
G1 X31.734 Y-49.075 E24.01280
G1 X35.404 Y-49.335 E24.36458
G1 X36.334 Y-49.335 E24.45350
G1 X37.264 Y-49.205 E24.54328
G1 X38.204 Y-49.005 E24.63517
G1 X39.114 Y-48.745 E24.72566
G1 X39.984 Y-48.345 E24.81722
G1 X43.214 Y-46.595 E25.16847
G1 X44.024 Y-46.085 E25.25998
G1 X44.754 Y-45.455 E25.35218
G1 X45.444 Y-44.765 E25.44548
G1 X46.064 Y-44.045 E25.53633
G1 X46.584 Y-43.245 E25.62756
G1 X48.344 Y-40.015 E25.97926
G1 X48.724 Y-39.165 E26.06829
G1 X48.994 Y-38.275 E26.15721
G1 X49.204 Y-37.335 E26.24931
G1 X49.344 Y-36.375 E26.34207
G1 X49.344 Y-35.395 E26.43577
G1 X49.074 Y-31.725 E26.78762
G1 X48.954 Y-30.875 E26.86969
G1 X40.004 Y12.738 E31.12664
G1 F1800.000 E30.12664
G92 E0
G1 X12.669 Y-19.529 F7800.000
G1 E1.00000 F1800.000
G1 X-0.796 Y-3.482 E3.00291 F540.000
G1 X-3.408 Y-4.003 E3.25757
G1 X-4.933 Y-4.022 E3.40337
G1 X-6.437 Y-3.764 E3.54923
G1 X-7.867 Y-3.236 E3.69505
G1 X-9.178 Y-2.456 E3.84084
G1 X-11.179 Y-0.699 E4.09552
G1 X-33.413 Y-8.792 E6.35782
G1 X-28.730 Y-15.855 E7.16812
G1 X-24.077 Y-20.444 E7.79300
G1 X-18.582 Y-23.980 E8.41772
G1 X-12.479 Y-26.313 E9.04251
G1 X-6.026 Y-27.344 E9.66728
G1 X0.502 Y-27.029 E10.29215
G1 X6.824 Y-25.382 E10.91685
G1 X14.413 Y-21.607 E11.72723
G1 X12.732 Y-19.605 E11.97719
G1 X12.166 Y-19.952 F7800.000
G1 X-1.049 Y-4.203 E13.94290 F540.000
G1 X-3.339 Y-4.659 E14.16615
G1 X-4.985 Y-4.680 E14.32350
G1 X-6.607 Y-4.401 E14.48089
G1 X-8.152 Y-3.832 E14.63827
G1 X-9.566 Y-2.990 E14.79563
G1 X-11.320 Y-1.450 E15.01887
G1 X-32.405 Y-9.124 E17.16420
G1 X-28.220 Y-15.435 E17.88822
G1 X-23.664 Y-19.928 E18.50006
G1 X-18.284 Y-23.390 E19.11175
G1 X-12.308 Y-25.675 E19.72352
G1 X-5.990 Y-26.685 E20.33525
G1 X0.402 Y-26.376 E20.94708
G1 X6.592 Y-24.763 E21.55876
G1 X13.373 Y-21.391 E22.28285
G1 X12.229 Y-20.027 E22.45304
G1 X11.662 Y-20.374 F7800.000
G1 X-1.303 Y-4.923 E24.38154 F378.000
G1 X-3.270 Y-5.315 E24.57337
G1 X-5.037 Y-5.338 E24.74228
G1 X-6.778 Y-5.039 E24.91120
G1 X-8.436 Y-4.427 E25.08014
G1 X-9.954 Y-3.523 E25.24906
G1 X-11.461 Y-2.200 E25.44086
G1 X-31.396 Y-9.456 E27.46923
G1 X-27.710 Y-15.015 E28.10696
G1 X-23.251 Y-19.413 E28.70577
G1 X-17.986 Y-22.801 E29.30443
G1 X-12.137 Y-25.037 E29.90317
G1 X-5.953 Y-26.025 E30.50187
G1 X0.302 Y-25.723 E31.10067
G1 X6.361 Y-24.144 E31.69931
G1 X12.333 Y-21.174 E32.33711
G1 X11.726 Y-20.449 E32.42753
G1 X11.887 Y-19.756 F7800.000
G1 X-0.922 Y0.922 F7800.000
G1 X0.410 Y3.538 E32.70817 F540.000
G1 X-0.049 Y6.437 E32.98885
G1 X-2.125 Y8.513 E33.26954
G1 X-5.024 Y8.972 E33.55022
G1 X-7.639 Y7.639 E33.83086
G1 X-8.972 Y5.024 E34.11151
G1 X-8.513 Y2.125 E34.39219
G1 X-6.437 Y0.049 E34.67287
G1 X-3.538 Y-0.410 E34.95355
G1 X-1.010 Y0.877 E35.22478
G1 X-1.411 Y1.411 F7800.000
G1 X-0.272 Y3.646 E35.46460 F540.000
G1 X-0.664 Y6.123 E35.70445
G1 X-2.438 Y7.897 E35.94430
G1 X-4.916 Y8.289 E36.18416
G1 X-7.151 Y7.151 E36.42398
G1 X-8.289 Y4.916 E36.66380
G1 X-7.897 Y2.438 E36.90366
G1 X-6.123 Y0.664 E37.14351
G1 X-3.646 Y0.272 E37.38336
G1 X-1.499 Y1.366 E37.61376
G1 X-1.899 Y1.899 F7800.000
G1 X-0.955 Y3.754 E37.81275 F540.000
G1 X-1.280 Y5.810 E38.01179
G1 X-2.752 Y7.282 E38.21080
G1 X-4.808 Y7.607 E38.40984
G1 X-6.662 Y6.662 E38.60883
G1 X-7.607 Y4.808 E38.80782
G1 X-7.282 Y2.752 E39.00686
G1 X-5.810 Y1.280 E39.20587
G1 X-3.754 Y0.955 E39.40491
G1 X-1.987 Y1.855 E39.59448
G1 X-1.250 Y1.797 F7800.000
G1 X3.482 Y0.796 F7800.000
G1 X21.607 Y-14.413 E41.85678 F540.000
G1 X25.382 Y-6.824 E42.66716
G1 X27.029 Y-0.502 E43.29186
G1 X27.344 Y6.026 E43.91673
G1 X26.313 Y12.479 E44.54149
G1 X23.980 Y18.582 E45.16629
G1 X20.444 Y24.077 E45.79101
G1 X15.855 Y28.730 E46.41589
G1 X8.792 Y33.413 E47.22618
G1 X0.699 Y11.179 E49.48849
G1 X2.456 Y9.178 E49.74316
G1 X3.236 Y7.867 E49.88896
G1 X3.764 Y6.437 E50.03477
G1 X4.022 Y4.933 E50.18063
G1 X4.003 Y3.408 E50.32644
G1 X3.501 Y0.893 E50.57167
G1 X4.203 Y1.049 F7800.000
G1 X21.391 Y-13.373 E52.71699 F540.000
G1 X24.763 Y-6.592 E53.44108
G1 X26.376 Y-0.402 E54.05275
G1 X26.685 Y5.990 E54.66459
G1 X25.675 Y12.308 E55.27632
G1 X23.390 Y18.284 E55.88809
G1 X19.928 Y23.664 E56.49978
G1 X15.435 Y28.220 E57.11162
G1 X9.124 Y32.405 E57.83564
G1 X1.450 Y11.320 E59.98097
G1 X2.990 Y9.566 E60.20421
G1 X3.832 Y8.152 E60.36157
G1 X4.401 Y6.607 E60.51894
G1 X4.680 Y4.985 E60.67633
G1 X4.659 Y3.339 E60.83369
G1 X4.222 Y1.146 E61.04751
G1 X4.923 Y1.303 F7800.000
G1 X21.174 Y-12.333 E63.07585 F378.000
G1 X24.144 Y-6.361 E63.71365
G1 X25.723 Y-0.302 E64.31229
G1 X26.025 Y5.953 E64.91110
G1 X25.037 Y12.137 E65.50980
G1 X22.801 Y17.986 E66.10853
G1 X19.413 Y23.251 E66.70720
G1 X15.015 Y27.710 E67.30600
G1 X9.456 Y31.396 E67.94374
G1 X2.200 Y11.461 E69.97210
G1 X3.524 Y9.954 E70.16390
G1 X4.427 Y8.436 E70.33282
G1 X5.039 Y6.778 E70.50177
G1 X5.338 Y5.037 E70.67069
G1 X5.315 Y3.270 E70.83959
G1 X4.942 Y1.399 E71.02200
G1 X4.590 Y0.736 F7800.000
G1 X-5.144 Y12.746 F7800.000
G1 X-1.036 Y36.047 E73.28421 F540.000
G1 X-9.495 Y35.522 E74.09451
G1 X-15.794 Y33.787 E74.71924
G1 X-21.605 Y30.797 E75.34411
G1 X-26.677 Y26.677 E75.96887
G1 X-30.797 Y21.605 E76.59362
G1 X-33.787 Y15.794 E77.21850
G1 X-35.522 Y9.495 E77.84323
G1 X-36.047 Y1.036 E78.65353
G1 X-12.746 Y5.144 E80.91574
G1 X-11.891 Y7.666 E81.17037
G1 X-11.145 Y8.998 E81.31628
G1 X-10.170 Y10.170 E81.46206
G1 X-8.998 Y11.145 E81.60785
G1 X-7.666 Y11.891 E81.75376
G1 X-5.238 Y12.715 E81.99897
G1 X-5.724 Y13.244 F7800.000
G1 X-1.828 Y35.339 E84.14422 F540.000
G1 X-9.386 Y34.870 E84.86823
G1 X-15.554 Y33.172 E85.47993
G1 X-21.244 Y30.243 E86.09177
G1 X-26.210 Y26.210 E86.70350
G1 X-30.243 Y21.244 E87.31522
G1 X-33.172 Y15.554 E87.92707
G1 X-34.871 Y9.386 E88.53877
G1 X-35.339 Y1.828 E89.26278
G1 X-13.244 Y5.724 E91.40803
G1 X-12.493 Y7.935 E91.63124
G1 X-11.689 Y9.371 E91.78869
G1 X-10.637 Y10.637 E91.94603
G1 X-9.371 Y11.689 E92.10337
G1 X-7.935 Y12.493 E92.26081
G1 X-5.817 Y13.212 E92.47460
G1 X-6.303 Y13.741 F7800.000
G1 X-2.620 Y34.632 E94.50289 F378.000
G1 X-9.277 Y34.219 E95.14062
G1 X-15.314 Y32.556 E95.73929
G1 X-20.882 Y29.690 E96.33810
G1 X-25.743 Y25.743 E96.93679
G1 X-29.690 Y20.882 E97.53549
G1 X-32.556 Y15.314 E98.13430
G1 X-34.219 Y9.277 E98.73297
G1 X-34.632 Y2.620 E99.37070
G1 X-13.741 Y6.303 E101.39898
G1 X-13.096 Y8.203 E101.59078
G1 X-12.232 Y9.745 E101.75977
G1 X-11.103 Y11.103 E101.92866
G1 X-9.745 Y12.232 E102.09755
G1 X-8.203 Y13.096 E102.26654
G1 X-6.397 Y13.709 E102.44891
G1 X-5.646 Y13.736 F7800.000
G1 F1800.000 E101.44891
G92 E0
G1 X-7.480 Y38.411 F7800.000
G1 E1.00000 F1800.000
G1 X-11.077 Y37.880 E1.34767 F540.000
G1 X-14.614 Y36.967 E1.69690
G1 X-18.026 Y35.683 E2.04552
G1 X-21.276 Y34.050 E2.39326
G1 X-24.359 Y32.064 E2.74386
G1 X-27.196 Y29.775 E3.09243
G1 X-29.775 Y27.196 E3.44118
G1 X-32.064 Y24.359 E3.78973
G1 X-34.050 Y21.277 E4.14032
G1 X-35.683 Y18.027 E4.48805
G1 X-36.967 Y14.614 E4.83667
G1 X-37.880 Y11.077 E5.18591
G1 X-38.411 Y7.480 E5.53360
G1 X-38.559 Y3.822 E5.88363
G1 X-38.317 Y0.184 E6.23230
G1 X-37.687 Y-3.413 E6.58138
G1 X-36.681 Y-6.925 E6.93068
G1 X-35.303 Y-10.311 E7.28021
G1 X-33.581 Y-13.520 E7.62844
G1 X-31.519 Y-16.537 E7.97784
G1 X-29.162 Y-19.305 E8.32547
G1 X-26.507 Y-21.824 E8.67535
G1 X-23.608 Y-24.038 E9.02415
G1 X-20.488 Y-25.933 E9.37323
G1 X-17.181 Y-27.486 E9.72248
G1 X-13.731 Y-28.678 E10.07155
G1 X-10.188 Y-29.493 E10.41916
G1 X-6.562 Y-29.932 E10.76833
G1 X-2.910 Y-29.980 E11.11752
G1 X0.732 Y-29.639 E11.46730
G1 X4.307 Y-28.915 E11.81604
G1 X7.771 Y-27.820 E12.16341
G1 X11.119 Y-26.356 E12.51278
G1 X14.306 Y-24.535 E12.86375
G1 X17.256 Y-22.400 E13.21196
G1 X19.966 Y-19.966 E13.56023
G1 X22.400 Y-17.256 E13.90850
G1 X24.535 Y-14.306 E14.25669
G1 X26.356 Y-11.119 E14.60768
G1 X27.820 Y-7.771 E14.95704
G1 X28.915 Y-4.307 E15.30439
G1 X29.639 Y-0.732 E15.65315
G1 X29.980 Y2.910 E16.00292
G1 X29.932 Y6.562 E16.35210
G1 X29.493 Y10.188 E16.70129
G1 X28.678 Y13.731 E17.04890
G1 X27.486 Y17.181 E17.39795
G1 X25.933 Y20.488 E17.74720
G1 X24.038 Y23.608 E18.09628
G1 X21.824 Y26.507 E18.44508
G1 X19.305 Y29.162 E18.79498
G1 X16.537 Y31.520 E19.14262
G1 X13.520 Y33.581 E19.49200
G1 X10.311 Y35.303 E19.84023
G1 X6.924 Y36.681 E20.18978
G1 X3.413 Y37.687 E20.53908
G1 X-0.183 Y38.317 E20.88814
G1 X-3.822 Y38.559 E21.23682
G1 X-7.382 Y38.415 E21.57743
G1 X-7.542 Y39.067 F7800.000
G1 X-11.208 Y38.525 E21.93178 F540.000
G1 X-14.812 Y37.594 E22.28771
G1 X-18.290 Y36.286 E22.64303
G1 X-21.603 Y34.622 E22.99745
G1 X-24.744 Y32.598 E23.35476
G1 X-27.636 Y30.265 E23.71003
G1 X-30.265 Y27.636 E24.06547
G1 X-32.598 Y24.744 E24.42073
G1 X-34.622 Y21.603 E24.77802
G1 X-36.286 Y18.291 E25.13243
G1 X-37.594 Y14.812 E25.48775
G1 X-38.524 Y11.208 E25.84369
G1 X-39.067 Y7.542 E26.19806
G1 X-39.217 Y3.814 E26.55478
G1 X-38.970 Y0.105 E26.91017
G1 X-38.329 Y-3.560 E27.26594
G1 X-37.303 Y-7.140 E27.62195
G1 X-35.898 Y-10.590 E27.97818
G1 X-34.143 Y-13.861 E28.33310
G1 X-32.042 Y-16.937 E28.68920
G1 X-29.640 Y-19.758 E29.04351
G1 X-26.934 Y-22.325 E29.40009
G1 X-23.979 Y-24.581 E29.75559
G1 X-20.799 Y-26.513 E30.11138
G1 X-17.429 Y-28.095 E30.46734
G1 X-13.912 Y-29.311 E30.82310
G1 X-10.301 Y-30.141 E31.17738
G1 X-6.606 Y-30.588 E31.53325
G1 X-2.884 Y-30.637 E31.88916
G1 X0.828 Y-30.290 E32.24563
G1 X4.471 Y-29.552 E32.60107
G1 X8.002 Y-28.436 E32.95511
G1 X11.414 Y-26.944 E33.31118
G1 X14.662 Y-25.088 E33.66888
G1 X17.670 Y-22.912 E34.02378
G1 X20.431 Y-20.431 E34.37874
G1 X22.912 Y-17.670 E34.73369
G1 X25.088 Y-14.662 E35.08857
G1 X26.944 Y-11.414 E35.44629
G1 X28.436 Y-8.002 E35.80235
G1 X29.552 Y-4.472 E36.15638
G1 X30.290 Y-0.828 E36.51183
G1 X30.637 Y2.884 E36.86830
G1 X30.588 Y6.606 E37.22419
G1 X30.141 Y10.301 E37.58008
G1 X29.311 Y13.912 E37.93436
G1 X28.095 Y17.429 E38.29011
G1 X26.513 Y20.799 E38.64606
G1 X24.581 Y23.979 E39.00184
G1 X22.325 Y26.934 E39.35735
G1 X19.758 Y29.640 E39.71395
G1 X16.937 Y32.042 E40.06827
G1 X13.861 Y34.143 E40.42435
G1 X10.591 Y35.898 E40.77926
G1 X7.139 Y37.303 E41.13552
G1 X3.560 Y38.329 E41.49153
G1 X-0.105 Y38.970 E41.84728
G1 X-3.814 Y39.217 E42.20267
G1 X-7.443 Y39.071 E42.54999
G1 X-6.797 Y39.754 F7800.000
G1 X-6.818 Y40.143 E42.58726 F378.000
G1 X-7.084 Y41.256 E42.69662
G1 X-7.469 Y42.217 E42.79564
G1 X-8.171 Y42.152 E42.86299
G1 X-8.371 Y41.136 E42.96202
G1 X-8.425 Y39.992 E43.07152
G1 X-8.378 Y39.607 E43.10860
G1 X-10.551 Y39.286 E43.31865
G1 X-10.616 Y39.669 E43.35580
G1 X-10.998 Y40.749 E43.46532
G1 X-11.483 Y41.664 E43.56435
G1 X-12.174 Y41.524 E43.63172
G1 X-12.265 Y40.492 E43.73072
G1 X-12.198 Y39.349 E43.84018
G1 X-12.108 Y38.971 E43.87739
G1 X-14.238 Y38.421 E44.08772
G1 X-14.343 Y38.795 E44.12482
G1 X-14.837 Y39.828 E44.23433
G1 X-15.416 Y40.685 E44.33327
G1 X-16.088 Y40.473 E44.40065
G1 X-16.070 Y39.438 E44.49963
G1 X-15.881 Y38.309 E44.60903
G1 X-15.749 Y37.944 E44.64618
G1 X-17.810 Y37.168 E44.85671
G1 X-17.955 Y37.529 E44.89388
G1 X-18.556 Y38.504 E45.00337
G1 X-19.224 Y39.295 E45.10238
G1 X-19.869 Y39.013 E45.16968
G1 X-19.740 Y37.985 E45.26875
G1 X-19.433 Y36.883 E45.37810
G1 X-19.263 Y36.532 E45.41536
G1 X-21.229 Y35.545 E45.62578
G1 X-21.411 Y35.887 E45.66281
G1 X-22.113 Y36.792 E45.77235
G1 X-22.861 Y37.508 E45.87132
G1 X-23.473 Y37.158 E45.93870
G1 X-23.236 Y36.151 E46.03764
G1 X-22.812 Y35.086 E46.14725
G1 X-22.610 Y34.754 E46.18434
G1 X-24.455 Y33.566 E46.39418
G1 X-24.674 Y33.886 E46.43124
G1 X-25.468 Y34.712 E46.54083
G1 X-26.288 Y35.344 E46.63986
G1 X-26.859 Y34.932 E46.70719
G1 X-26.517 Y33.955 E46.80618
G1 X-25.983 Y32.943 E46.91556
G1 X-25.742 Y32.637 E46.95279
G1 X-27.459 Y31.252 E47.16366
G1 X-27.707 Y31.551 E47.20085
G1 X-28.584 Y32.287 E47.31025
G1 X-29.465 Y32.829 E47.40922
G1 X-29.990 Y32.358 E47.47662
G1 X-29.545 Y31.422 E47.57568
G1 X-28.907 Y30.474 E47.68495
G1 X-28.635 Y30.194 E47.72222
G1 X-30.194 Y28.635 E47.93303
G1 X-30.474 Y28.907 E47.97030
G1 X-31.422 Y29.545 E48.07957
G1 X-32.358 Y29.990 E48.17863
G1 X-32.829 Y29.465 E48.24603
G1 X-32.287 Y28.584 E48.34500
G1 X-31.552 Y27.707 E48.45440
G1 X-31.252 Y27.459 E48.49159
G1 X-32.637 Y25.742 E48.70246
G1 X-32.943 Y25.983 E48.73969
G1 X-33.955 Y26.517 E48.84907
G1 X-34.932 Y26.859 E48.94807
G1 X-35.344 Y26.288 E49.01539
G1 X-34.712 Y25.468 E49.11442
G1 X-33.886 Y24.674 E49.22402
G1 X-33.566 Y24.455 E49.26108
G1 X-34.754 Y22.610 E49.47090
G1 X-35.086 Y22.812 E49.50799
G1 X-36.151 Y23.236 E49.61761
G1 X-37.158 Y23.473 E49.71655
G1 X-37.508 Y22.861 E49.78392
G1 X-36.792 Y22.113 E49.88289
G1 X-35.887 Y21.411 E49.99243
G1 X-35.545 Y21.229 E50.02946
G1 X-36.532 Y19.263 E50.23988
G1 X-36.883 Y19.433 E50.27715
G1 X-37.985 Y19.740 E50.38650
G1 X-39.013 Y19.869 E50.48557
G1 X-39.295 Y19.224 E50.55286
G1 X-38.504 Y18.556 E50.65188
G1 X-37.529 Y17.955 E50.76136
